X:707
T:Reel 707
M:4/4
K:Dmaj
L:1/8
G|FAAF GBBG|FAAF GFED|FAAF GFED|A,ABd d2A2|FAAF GBdB|AFAF EDB,A,|FAAc BABd|AFEF D2D|||AdAf gbag|faef dBBA|FAAd BdAB|defe e2d2|fdAd BdAB|AFdf e2e2|faaf gefd| (3Bcd AF EDD2|
